CommonLib.Web/CommonLib.Web/wwwroot/icons/regular/music.svg

<svg xmlns="http://www.w3.org/2000/svg" viewBox="0 0 512 512"><path d="M480.06 0a31.94 31.94 0 0 0-9.68 1.5l-304 96A32 32 0 0 0 144 128v235.09A109.68 109.68 0 0 0 96 352c-53 0-96 35.81-96 80s43 80 96 80c49.38 0 89.56-31.16 94.91-71.09a38.74 38.74 0 0 0 1.06-8.66V256l272-85.91v129A109.78 109.78 0 0 0 416 288c-53 0-96 35.81-96 80s43 80 96 80c49.38 0 89.56-31.19 94.94-71.12a38.94 38.94 0 0 0 1-8.22c0-.22.06-.44.06-.66V32a32 32 0 0 0-31.94-32zM96 464c-28.28 0-48-16.88-48-32s19.72-32 48-32 48 16.84 48 32-19.72 32-48 32zm368-96c0 15.12-19.72 32-48 32s-48-16.88-48-32 19.72-32 48-32 48 16.84 48 32zm0-248.25l-272 85.91v-65.91l272-85.87z"/></svg>

<svg xmlns="http://www.w3.org/2000/svg" viewBox="0 0 512 512"><!--! Font Awesome Pro 6.2.0 by @fontawesome - https://fontawesome.com License - https://fontawesome.com/license (Commercial License) Copyright 2022 Fonticons, Inc. --><path d="M480 0c-3.25 0-6.5 .4896-9.625 1.49l-304 96.01C153.1 101.8 144 114 144 128v235.1c-15-7.375-31.38-11.12-48-11.12C42.1 352 0 387.8 0 432S42.1 512 95.1 512c49.38 0 89.5-31.12 94.88-71.13c.75-2.75 1.123-5.95 1.123-8.825L192 256l272-85.88v129c-15-7.375-31.38-11.12-48.01-11.12c-53 0-95.1 35.75-95.1 79.1s42.1 79.1 95.1 79.1c49.38 0 89.51-31.25 95.01-71.13c.625-2.75 .875-5.5 1-8.25V31.99C512 14.36 497.8 0 480 0zM96 464c-28.25 0-48-16.88-48-32s19.75-32 48-32s48 16.88 48 32S124.2 464 96 464zM464 368c0 15.12-19.75 32-48 32s-48-16.88-48-32s19.75-32 48-32S464 352.9 464 368zM464 119.8L192 205.6V139.8l272-85.88V119.8z"/></svg>
